icons/svg/language.svg

<!-- Generated by IcoMoon.io -->
<svg version="1.1" xmlns="http://www.w3.org/2000/svg" width="48" height="48" viewBox="0 0 48 48">
<title>language</title>
<path d="M8.444 12.019l-8.344 23.958h4.926l1.575-5.094h8.645l1.608 5.094h5.060l-8.444-23.958zM7.74 27.164l2.144-6.904c0.402-1.273 1.006-3.686 1.006-3.686h0.066s0.57 2.413 0.972 3.686l2.145 6.904z"></path>
<path d="M46 12v0 0h-11.172l-5.412-5.412c-0.364-0.377-0.875-0.612-1.44-0.612-1.105 0-2 0.895-2 2 0 0.564 0.233 1.073 0.609 1.437l2.586 2.587h-7.171c-1.105 0-2 0.895-2 2s0.895 2 2 2v0 0h2c0.038 6.043 2.512 11.501 6.487 15.448l0.001 0.001c-0.732 0.324-1.583 0.524-2.478 0.551l-0.010 0c-1.105 0-2 0.895-2 2s0.895 2 2 2v0 0 0c2.234-0.075 4.296-0.75 6.048-1.869l-0.048 0.029c1.704 1.090 3.766 1.765 5.98 1.839l0.020 0.001c1.105 0 2-0.895 2-2s-0.895-2-2-2v0 0 0c-0.905-0.027-1.756-0.227-2.532-0.568l0.044 0.017c3.977-3.948 6.45-9.406 6.488-15.442l0-0.007h2c1.105 0 2-0.895 2-2s-0.895-2-2-2v0zM34 29.225c-3.657-3.259-5.961-7.969-6-13.218l-0-0.007h12c-0.040 5.256-2.343 9.966-5.982 13.209l-0.018 0.016z"></path>
</svg>

<svg xmlns="http://www.w3.org/2000/svg" width="48" height="48" viewBox="0 0 48 48">
  <path d="M8.444 12.019.1 35.977h4.926l1.575-5.094h8.645l1.608 5.094h5.06L13.47 12.019zM7.74 27.164l2.144-6.904c.402-1.273 1.006-3.686 1.006-3.686h.066s.57 2.413.972 3.686l2.145 6.904zM46 12H34.828l-5.412-5.412a2 2 0 1 0-2.831 2.825L29.171 12H22a2 2 0 1 0 0 4h2a21.895 21.895 0 0 0 6.487 15.448l.001.001A6.66 6.66 0 0 1 28.01 32H28a2 2 0 1 0 0 4 11.93 11.93 0 0 0 6.048-1.869L34 34.16a11.843 11.843 0 0 0 5.98 1.839L40 36a2 2 0 1 0 0-4 6.769 6.769 0 0 1-2.532-.568l.044.017A21.887 21.887 0 0 0 44 16.007V16h2a2 2 0 1 0 0-4zM34 29.225c-3.657-3.259-5.961-7.969-6-13.218V16h12a17.823 17.823 0 0 1-5.982 13.209l-.018.016z"/>
</svg>
